!! 00000] TT[WS
!!!OTL: Tingfang diao
!!!ARE: Asia, China, Shanxi Dingxiang
!! Ethnic Group: Han
!! WI, 316
!!!SCT: J0383
!!!YEM: Copyright 1995, estate of Helmut Schaffrath.
**kern
*ICvox
*Ivox
*M2/4
*k[b-]
*F:
{8cc
16cc
16dd
8ff
16ee
16dd
=1
8.cc
16dd
8a
8g
=2
8cc
16cc
16dd
8ff
16ee
16dd
=3
8.cc
16dd
8a
8g}
=4
{8a
4cc
8ff
=5
8.dd
16cc
8a
8g
=6
16a
16cc
8g
16a
16cc
16a
16d
=7
8.f
16d
4f}
=8
{8a
16a
16f
8g
8a
=9
8cc
8cc
8ff
8a
=10
8g
8a
16g
16a
16g
16f
=11
16g
16f
4d
8f
=12
8g
16g
16cc
8f
8d
=13
2c}
==
!!!AGN: Xiaodiao. Xinminge, Xuanchuan
!! Neue Text. Politische Liede
!!!ONB: ESAC (Essen Associative Code) Database: CHINA
!!!AMT: simple duple
!!!AIN: vox
!!!EED: Helmut Schaffrath
!!!EEV: 1.0
*-
